public/assets/heat5.svg

<svg width="110" height="110" viewBox="0 0 110 110" fill="none" xmlns="http://www.w3.org/2000/svg">
<path d="M55.4874 54.5C55.4838 54.2783 55.4815 53.9836 55.4839 53.6248C55.4897 52.7571 55.5234 51.5153 55.6349 50.0243C55.858 47.0395 56.392 43.0697 57.6316 39.1077C58.8721 35.1425 60.8093 31.2173 63.8181 28.288C66.8146 25.3707 70.8976 23.4167 76.496 23.4167C80.9121 23.4167 84.2123 25.3405 86.563 28.2444C88.9253 31.1625 90.3325 35.0796 90.8968 39.0291C91.4611 42.9793 91.1745 46.9092 90.2013 49.8289C89.2139 52.7912 87.6094 54.5 85.6627 54.5C83.8582 54.5 81.9285 53.6954 79.8375 52.6216C79.2641 52.3272 78.6779 52.012 78.0821 51.6916C76.5467 50.8659 74.9474 50.0059 73.3377 49.378C71.0851 48.4992 68.7174 48.0316 66.2997 48.7183C63.931 49.391 61.6022 51.1461 59.3175 54.5H55.4874Z" fill="#009D8F" stroke="black"/>
<path d="M39.245 28.7127L39.2453 28.7131C40.1448 30.2678 40.4107 32.3353 40.5244 34.6794C40.5554 35.3206 40.575 35.9833 40.5949 36.6569C40.6463 38.3987 40.7 40.2139 40.9604 41.9225C41.3246 44.3111 42.103 46.5946 43.9068 48.3444C45.674 50.0586 48.3593 51.197 52.4081 51.4976L54.3242 54.8281C54.134 54.9423 53.8797 55.092 53.5674 55.2697C52.8133 55.699 51.7214 56.2913 50.3749 56.941C47.6794 58.2417 43.9757 59.7662 39.9259 60.6757C35.8729 61.586 31.5063 61.8729 27.4661 60.7335C23.4424 59.5987 19.7093 57.0408 16.9101 52.1926C14.702 48.3683 14.7179 44.5484 16.0573 41.0607C17.4033 37.5559 20.0918 34.3787 23.23 31.9153C26.3687 29.4515 29.9153 27.7348 32.9304 27.1178C35.9896 26.4917 38.2717 27.0268 39.245 28.7127Z" fill="#009D8F" stroke="black"/>
<path d="M55.1902 55.672C55.384 55.7797 55.6403 55.9248 55.9497 56.1059C56.6985 56.5444 57.7574 57.1939 58.9933 58.0351C61.4673 59.7192 64.6394 62.1646 67.4518 65.217C70.2666 68.2719 72.6982 71.9101 73.7314 75.9788C74.7604 80.0307 74.4116 84.5426 71.6124 89.3908C69.4043 93.2151 66.0882 95.1113 62.3981 95.6951C58.6899 96.2818 54.5941 95.5419 50.8917 94.0557C47.1887 92.5693 43.9287 90.3562 41.8868 88.0535C39.8152 85.7172 39.1376 83.4733 40.1109 81.7875C41.0107 80.2338 42.6707 78.9711 44.6456 77.7011C45.1832 77.3554 45.7447 77.009 46.3155 76.6569C47.8021 75.7398 49.3516 74.7839 50.7044 73.7015C52.5919 72.1914 54.1807 70.375 54.7943 67.9382C55.3956 65.5507 55.0388 62.6566 53.2743 59.002L55.1902 55.672Z" fill="#009D8F" stroke="black"/>
<path d="M67.75 55C67.75 62.0416 62.0416 67.75 55 67.75C47.9584 67.75 42.25 62.0416 42.25 55C42.25 47.9584 47.9584 42.25 55 42.25C62.0416 42.25 67.75 47.9584 67.75 55Z" fill="#759996" stroke="black" stroke-width="2"/>
</svg>

<svg width="110" height="110" fill="none" xmlns="http://www.w3.org/2000/svg"><path d="M55.487 54.5a38.455 38.455 0 0 1-.003-.875c.006-.868.04-2.11.15-3.6.224-2.986.758-6.955 1.998-10.917 1.24-3.965 3.177-7.89 6.186-10.82 2.997-2.917 7.08-4.871 12.678-4.871 4.416 0 7.716 1.923 10.067 4.827 2.362 2.919 3.77 6.836 4.334 10.785.564 3.95.277 7.88-.696 10.8-.987 2.962-2.592 4.671-4.538 4.671-1.805 0-3.734-.805-5.825-1.878-.574-.295-1.16-.61-1.756-.93-1.535-.826-3.135-1.686-4.744-2.314-2.253-.879-4.62-1.346-7.038-.66-2.369.673-4.698 2.428-6.982 5.782h-3.83zM39.245 28.713c.9 1.555 1.166 3.622 1.28 5.966.03.642.05 1.304.07 1.978.051 1.742.105 3.557.365 5.266.365 2.388 1.143 4.672 2.947 6.421 1.767 1.715 4.452 2.853 8.501 3.154l1.916 3.33c-.19.114-.444.264-.757.442a53.539 53.539 0 0 1-3.192 1.671c-2.696 1.3-6.4 2.825-10.45 3.735-4.052.91-8.419 1.197-12.459.057-4.024-1.134-7.757-3.692-10.556-8.54-2.208-3.825-2.192-7.645-.853-11.132 1.346-3.505 4.035-6.682 7.173-9.146 3.139-2.463 6.685-4.18 9.7-4.797 3.06-.626 5.342-.091 6.315 1.595zM55.19 55.672c.194.108.45.253.76.434a53.634 53.634 0 0 1 3.043 1.93c2.474 1.683 5.646 4.129 8.459 7.181 2.815 3.055 5.246 6.693 6.28 10.762 1.028 4.052.68 8.564-2.12 13.412-2.208 3.824-5.524 5.72-9.214 6.304-3.708.587-7.804-.153-11.506-1.64-3.703-1.486-6.963-3.699-9.005-6.002-2.072-2.336-2.75-4.58-1.776-6.266.9-1.553 2.56-2.816 4.535-4.086.537-.346 1.099-.692 1.67-1.044 1.486-.917 3.036-1.873 4.388-2.956 1.888-1.51 3.477-3.326 4.09-5.763.602-2.387.245-5.281-1.52-8.936l1.916-3.33z" fill="#009D8F" stroke="#000"/><path d="M67.75 55c0 7.042-5.708 12.75-12.75 12.75S42.25 62.042 42.25 55 47.958 42.25 55 42.25 67.75 47.958 67.75 55z" fill="#759996" stroke="#000" stroke-width="2"/></svg>
